X:19
M:6/8
L:1/8
K:G
|: d2B d2B | c2A c2A | gdB cAG | FAG FED | d2B d2B | c2A c2A | gdB cAF | G3 G,3 :|
|: D2D C2B, | D2D C2B, | GAB ABc | BAG AFD | D2D C2B, | D2D C2B, | B,cB AGF | G3 G,3 :|

